X:36
T:Dress'd Ship THO4.036, The
M:C|
L:1/8
Z:vmp. Peter Dunk 2010/11.from a transcription by Fynn Titford-Mock 2007
B:Thompson's Compleat Collection of 200 Favourite Country Dances Volume IV.
Q:1/2=80
K:A
e|cAEc d2 (d/e/f)|ecac dB-Be|cAEc dfea|fdBe cA-A:|
|:f/g/|aecA f/g/a/g/ ec|dfec dB-Bf/g/|aecA f/g/a/f/ ec|fdBe cA-A:|

